app/assets/images/heroicons/micro/flag.svg

<svg width="16" height="16" viewBox="0 0 16 16" fill="none" xmlns="http://www.w3.org/2000/svg">
<path d="M2.75 2C2.33579 2 2 2.33579 2 2.75V13.25C2 13.6642 2.33579 14 2.75 14C3.16421 14 3.5 13.6642 3.5 13.25V10.6255L3.83069 10.5428C5.23054 10.1928 6.7094 10.3552 8 11.0005C9.2906 11.6458 10.7695 11.8081 12.1693 11.4581L13.6498 11.088C13.8556 11.0366 14 10.8517 14 10.6395V3.56111C14 3.27633 13.7324 3.06737 13.4561 3.13644L12.1693 3.45814C10.7695 3.8081 9.2906 3.64576 8 3.00046C6.7094 2.35517 5.23054 2.19283 3.8307 2.54279L3.49012 2.62794C3.43182 2.27178 3.12265 2 2.75 2Z" fill="black"/>
</svg>

<svg xmlns="http://www.w3.org/2000/svg" viewBox="0 0 16 16" fill="currentColor" aria-hidden="true" data-slot="icon">
  <path d="M2.75 2a.75.75 0 0 0-.75.75v10.5a.75.75 0 0 0 1.5 0v-2.624l.33-.083A6.044 6.044 0 0 1 8 11c1.29.645 2.77.807 4.17.457l1.48-.37a.462.462 0 0 0 .35-.448V3.56a.438.438 0 0 0-.544-.425l-1.287.322C10.77 3.808 9.291 3.646 8 3a6.045 6.045 0 0 0-4.17-.457l-.34.085A.75.75 0 0 0 2.75 2Z"/>
</svg>
